X:1
T:When I Was Young, I Had No Sense
M:4/4
L:1/4
K:C
 E/2| E G C3/2 E/2| E D F3/2 D/2| D F B,/2B,/2 D| D C E| z/2 E/2| E G C3/2 E/2|\
 E D F3/2 D/2| D/2D/2 F B, D| D C C| C| E E D3/2 C/2| B, D3/2 z/2 E|\
 F F E3/2 D/2| C E2| G| G G c3/2 B/2| B A3/2 z/2 A| G G F B,| C2 z/2||\
